addons/web/static/img/smiling_face.svg

<svg xmlns="http://www.w3.org/2000/svg" xmlns:xlink="http://www.w3.org/1999/xlink" width="120" height="140" viewBox="0 0 120 140">
    <defs>
        <linearGradient id="empty_state_file_happy-c" x1="91.284%" x2="25.707%" y1="100%" y2="0%">
            <stop offset="0%" stop-color="#875A7B"/>
            <stop offset="100%" stop-color="#6B4862"/>
        </linearGradient>
        <circle id="empty_state_file_happy-b" cx="56" cy="76.614" r="56"/>
        <filter id="empty_state_file_happy-a" width="112.5%" height="112.5%" x="-6.2%" y="-4.5%" filterUnits="objectBoundingBox">
            <feOffset dy="2" in="SourceAlpha" result="shadowOffsetOuter1"/>
            <feGaussianBlur in="shadowOffsetOuter1" result="shadowBlurOuter1" stdDeviation="2"/>
            <feColorMatrix in="shadowBlurOuter1" values="0 0 0 0 0   0 0 0 0 0   0 0 0 0 0  0 0 0 0.106063179 0"/>
        </filter>
        <path id="empty_state_file_happy-d" d="M56,122.807018 C86.927946,122.807018 112,97.6721263 112,66.6666667 C112,59.6606665 112,37.4384443 112,0 L0,0 C0,23.774138 0,45.9963602 0,66.6666667 C0,97.6721263 25.072054,122.807018 56,122.807018 Z"/>
        <path id="empty_state_file_happy-f" d="M22,6.01503759 L84.3146067,6.01503759 L100.5,22.556391 L100.5,114.829574 L100.5,114.829574 C100.5,124.218415 92.8888407,131.829574 83.5,131.829574 L31,131.829574 L31,131.829574 C21.6111593,131.829574 14,124.218415 14,114.829574 L14,14.0150376 L14,14.0150376 C14,9.5967596 17.581722,6.01503759 22,6.01503759 Z"/>
    </defs>
    <g fill="none" fill-rule="evenodd" transform="translate(4 2)">
        <use fill="#000" filter="url(#empty_state_file_happy-a)" xlink:href="#empty_state_file_happy-b"/>
        <use fill="url(#empty_state_file_happy-c)" xlink:href="#empty_state_file_happy-b"/>
        <g transform="translate(0 10)">
            <mask id="empty_state_file_happy-e" fill="#fff">
                <use xlink:href="#empty_state_file_happy-d"/>
            </mask>
            <g mask="url(#empty_state_file_happy-e)">
                <use fill="#FFF" xlink:href="#empty_state_file_happy-f"/>
                <path stroke="#A1ACBA" stroke-width="2" d="M99.5,22.9642476 L83.8940075,7.01503759 L22,7.01503759 C18.1340068,7.01503759 15,10.1490443 15,14.0150376 L15,114.829574 C15,123.66613 22.163444,130.829574 31,130.829574 L83.5,130.829574 C92.336556,130.829574 99.5,123.66613 99.5,114.829574 L99.5,22.9642476 Z"/>
            </g>
            <path stroke="#A1ACBA" stroke-width="2" d="M84.8002454,27.5045043 C87.4060329,25.0223449 91.4154529,21.2660453 91.7879265,20.6269769 C92.0921888,20.1049414 92.2011803,19.5697888 92.2011803,18.5540391 C92.2011803,17.9213416 92.0599129,17.3140076 91.7659798,16.6778758 C91.2745815,15.6143886 90.3683274,14.4694369 88.765383,12.8381982 C88.2386259,12.302143 86.3189539,10.4445628 84.8002454,8.96835098 L84.8002454,27.5045043 Z" mask="url(#empty_state_file_happy-e)" transform="rotate(135 88.5 18.226)"/>
            <g fill="#000" mask="url(#empty_state_file_happy-e)" opacity=".07">
                <g transform="translate(23 81)">
                    <rect width="46.716" height="6.214"/>
                    <rect width="68.812" height="6.214" y="8.7"/>
                    <rect width="42.297" height="6.214" y="20.506"/>
                    <rect width="52.398" height="6.214" y="31.07"/>
                </g>
            </g>
        </g>
        <path stroke="#A1ACBA" stroke-linecap="round" stroke-width="2" d="M13 14L4 5M18 9L18 0M1 20L10 20"/>
        <g transform="translate(28.491 43.21)">
            <path stroke="#A1ACBA" stroke-linecap="round" stroke-linejoin="round" stroke-width="2" d="M11.5087719,17.7894737 C28.0087719,26.7894737 44.5087719,17.7894737 44.5087719,17.7894737"/>
            <circle cx="48.009" cy="5.289" r="3.5" fill="#A1ACBA"/>
            <circle cx="8.009" cy="5.289" r="3.5" fill="#A1ACBA"/>
        </g>
    </g>
</svg>

<?xml version="1.0" encoding="utf-8"?>
<!-- Generator: Adobe Illustrator 25.4.1, SVG Export Plug-In . SVG Version: 6.00 Build 0)  -->
<svg version="1.1" id="Layer_1" xmlns="http://www.w3.org/2000/svg" xmlns:xlink="http://www.w3.org/1999/xlink" x="0px" y="0px"
	 viewBox="0 0 120 140" style="enable-background:new 0 0 120 140;" xml:space="preserve">
<style type="text/css">
	.st0{fill-rule:evenodd;clip-rule:evenodd;}
	.st1{fill-rule:evenodd;clip-rule:evenodd;fill:#009EFB;}
	.st2{filter:url(#Adobe_OpacityMaskFilter);}
	.st3{fill-rule:evenodd;clip-rule:evenodd;fill:#FFFFFF;}
	.st4{mask:url(#empty_state_file_happy-e_00000054226289336775323510000017178392655204251559_);}
	.st5{fill:none;stroke:#A1ACBA;stroke-width:2;}
	.st6{filter:url(#Adobe_OpacityMaskFilter_00000042732996264762425690000002531449800733130381_);}
	
		.st7{mask:url(#empty_state_file_happy-e_00000128452825245139811380000006507246278962504889_);fill:none;stroke:#A1ACBA;stroke-width:2;}
	.st8{filter:url(#Adobe_OpacityMaskFilter_00000011741611002094885220000016972995268882155656_);}
	.st9{opacity:7.000000e-02;mask:url(#empty_state_file_happy-e_00000070101758331865359670000016867975244603492747_);}
	.st10{fill:none;stroke:#A1ACBA;stroke-width:2;stroke-linecap:round;}
	.st11{fill:none;stroke:#A1ACBA;stroke-width:2;stroke-linecap:round;stroke-linejoin:round;}
	.st12{fill-rule:evenodd;clip-rule:evenodd;fill:#A1ACBA;}
</style>
<g transform="translate(4 2)">
	<g>
		<circle id="empty_state_file_happy-b" class="st0" cx="56" cy="76.6" r="56"/>
	</g>
	<g>
		
			<circle id="empty_state_file_happy-b_00000014612136433940470320000017833644963060816808_" class="st1" cx="56" cy="76.6" r="56"/>
	</g>
	<g transform="translate(0 10)">
		<defs>
			<filter id="Adobe_OpacityMaskFilter" filterUnits="userSpaceOnUse" x="14" y="6" width="86.5" height="125.8">
				<feColorMatrix  type="matrix" values="1 0 0 0 0  0 1 0 0 0  0 0 1 0 0  0 0 0 1 0"/>
			</filter>
		</defs>
		
			<mask maskUnits="userSpaceOnUse" x="14" y="6" width="86.5" height="125.8" id="empty_state_file_happy-e_00000054226289336775323510000017178392655204251559_">
			<g class="st2">
				<path id="empty_state_file_happy-d_00000008843589918877474520000016719457281011557786_" class="st3" d="M56,122.8
					c30.9,0,56-25.1,56-56.1c0-7,0-29.2,0-66.7H0c0,23.8,0,46,0,66.7C0,97.7,25.1,122.8,56,122.8z"/>
			</g>
		</mask>
		<g class="st4">
			<g>
				<path id="empty_state_file_happy-f" class="st3" d="M22,6h62.3l16.2,16.5v92.3l0,0c0,9.4-7.6,17-17,17H31l0,0
					c-9.4,0-17-7.6-17-17V14l0,0C14,9.6,17.6,6,22,6z"/>
			</g>
			<path class="st5" d="M99.5,23L83.9,7H22c-3.9,0-7,3.1-7,7v100.8c0,8.8,7.2,16,16,16h52.5c8.8,0,16-7.2,16-16V23z"/>
		</g>
		<defs>
			
				<filter id="Adobe_OpacityMaskFilter_00000088094129638567493020000016537586999552701570_" filterUnits="userSpaceOnUse" x="83.4" y="6.7" width="16.6" height="16.5">
				<feColorMatrix  type="matrix" values="1 0 0 0 0  0 1 0 0 0  0 0 1 0 0  0 0 0 1 0"/>
			</filter>
		</defs>
		
			<mask maskUnits="userSpaceOnUse" x="83.4" y="6.7" width="16.6" height="16.5" id="empty_state_file_happy-e_00000128452825245139811380000006507246278962504889_">
			<g style="filter:url(#Adobe_OpacityMaskFilter_00000088094129638567493020000016537586999552701570_);">
				<path id="empty_state_file_happy-d_00000138569242236929486990000004064674617974305716_" class="st3" d="M56,122.8
					c30.9,0,56-25.1,56-56.1c0-7,0-29.2,0-66.7H0c0,23.8,0,46,0,66.7C0,97.7,25.1,122.8,56,122.8z"/>
			</g>
		</mask>
		<path class="st7" d="M84.6,9c-0.1,3.6-0.3,9.1-0.1,9.8c0.2,0.6,0.5,1,1.2,1.8c0.4,0.4,1,0.8,1.6,1c1.1,0.4,2.5,0.6,4.8,0.6
			c0.8,0,3.4,0,5.5-0.1L84.6,9z"/>
		<defs>
			
				<filter id="Adobe_OpacityMaskFilter_00000143590646359022670600000000454283077301685932_" filterUnits="userSpaceOnUse" x="23" y="81" width="68.8" height="37.3">
				<feColorMatrix  type="matrix" values="1 0 0 0 0  0 1 0 0 0  0 0 1 0 0  0 0 0 1 0"/>
			</filter>
		</defs>
		
			<mask maskUnits="userSpaceOnUse" x="23" y="81" width="68.8" height="37.3" id="empty_state_file_happy-e_00000070101758331865359670000016867975244603492747_">
			<g style="filter:url(#Adobe_OpacityMaskFilter_00000143590646359022670600000000454283077301685932_);">
				<path id="empty_state_file_happy-d_00000090978112618772008800000005553770451414925501_" class="st3" d="M56,122.8
					c30.9,0,56-25.1,56-56.1c0-7,0-29.2,0-66.7H0c0,23.8,0,46,0,66.7C0,97.7,25.1,122.8,56,122.8z"/>
			</g>
		</mask>
		<g class="st9">
			<g transform="translate(23 81)">
				<rect class="st0" width="46.7" height="6.2"/>
				<rect y="8.7" class="st0" width="68.8" height="6.2"/>
				<rect y="20.5" class="st0" width="42.3" height="6.2"/>
				<rect y="31.1" class="st0" width="52.4" height="6.2"/>
			</g>
		</g>
	</g>
	<path class="st10" d="M13,14L4,5 M18,9V0 M1,20h9"/>
	<g transform="translate(28.491 43.21)">
		<path class="st11" d="M11.5,17.8c16.5,9,33,0,33,0"/>
		<circle class="st12" cx="48" cy="5.3" r="3.5"/>
		<circle class="st12" cx="8" cy="5.3" r="3.5"/>
	</g>
</g>
</svg>
